svgs/duotone/candle-holder.svg

<svg xmlns="http://www.w3.org/2000/svg" viewBox="0 0 448 512"><!-- Font Awesome Pro 6.0.0-alpha2 by @fontawesome - https://fontawesome.com License - https://fontawesome.com/license (Commercial License) --><defs><style>.fa-secondary{opacity:.4}</style></defs><path d="M160 192C205.875 192 238 159.375 238 112.75C238 82.75 205.375 37.875 160 0C114.375 38 82 82.875 82 112.75C82 159.375 114.125 192 160 192ZM376 368C336.25 368 304 400.25 304 440C304 448.5 305.75 456.5 308.375 464H16C7.125 464 0 471.125 0 480V496C0 504.875 7.125 512 16 512H376C415.75 512 448 479.75 448 440S415.75 368 376 368ZM376 464C362.75 464 352 453.25 352 440S362.75 416 376 416S400 426.75 400 440S389.25 464 376 464Z" class="fa-secondary"/><path d="M256 256V464H64V256C64 238.375 78.375 224 96 224H128V272C128 280.875 135.125 288 144 288S160 280.875 160 272V224H224C241.625 224 256 238.375 256 256Z" class="fa-primary"/></svg>

<svg xmlns="http://www.w3.org/2000/svg" viewBox="0 0 448 512"><!--! Font Awesome Pro 6.0.0-alpha3 by @fontawesome - https://fontawesome.com License - https://fontawesome.com/license (Commercial License) --><defs><style>.fa-secondary{opacity:.4}</style></defs><path class="fa-primary" d="M256 256v208H64V256c0-17.62 14.38-32 32-32h32v48c0 8.875 7.125 15.1 16 15.1S160 280.9 160 272V224h64C241.6 224 256 238.4 256 256z"/><path class="fa-secondary" d="M160 191.1c45.88 0 77.1-32.62 77.1-79.25C237.1 82.75 205.4 37.88 160 0C114.4 38 81.1 82.88 81.1 112.8C81.1 159.4 114.1 191.1 160 191.1zM376 368c-39.75 0-72 32.25-72 72c0 8.5 1.75 16.5 4.375 24H16C7.125 464 0 471.1 0 480v16C0 504.9 7.105 512 15.98 512H376c39.75 0 72-32.25 72-72S415.8 368 376 368zM376 464c-13.25 0-24-10.75-24-24S362.8 416 376 416s24 10.75 24 24S389.3 464 376 464z"/></svg>
